images/linkedin.svg

<?xml version="1.0" encoding="UTF-8" standalone="no"?>
<svg
   xmlns:dc="http://purl.org/dc/elements/1.1/"
   xmlns:cc="http://creativecommons.org/ns#"
   xmlns:rdf="http://www.w3.org/1999/02/22-rdf-syntax-ns#"
   xmlns:svg="http://www.w3.org/2000/svg"
   xmlns="http://www.w3.org/2000/svg"
   xmlns:sodipodi="http://sodipodi.sourceforge.net/DTD/sodipodi-0.dtd"
   xmlns:inkscape="http://www.inkscape.org/namespaces/inkscape"
   width="76"
   height="76"
   viewBox="0 0 76 76"
   fill="none"
   id="svg2"
   version="1.1"
   inkscape:version="0.91 r13725"
   sodipodi:docname="linkedin.svg">
  <metadata
     id="metadata10">
    <rdf:RDF>
      <cc:Work
         rdf:about="">
        <dc:format>image/svg+xml</dc:format>
        <dc:type
           rdf:resource="http://purl.org/dc/dcmitype/StillImage" />
      </cc:Work>
    </rdf:RDF>
  </metadata>
  <defs
     id="defs8" />
  <sodipodi:namedview
     pagecolor="#ffffff"
     bordercolor="#666666"
     borderopacity="1"
     objecttolerance="10"
     gridtolerance="10"
     guidetolerance="10"
     inkscape:pageopacity="0"
     inkscape:pageshadow="2"
     inkscape:window-width="1600"
     inkscape:window-height="877"
     id="namedview6"
     showgrid="false"
     inkscape:zoom="6.2105263"
     inkscape:cx="66.246378"
     inkscape:cy="41.078073"
     inkscape:window-x="-8"
     inkscape:window-y="-8"
     inkscape:window-maximized="1"
     inkscape:current-layer="svg2" />
  <path
     style="opacity:1;fill:#f4f4f6;fill-opacity:1;fill-rule:nonzero;stroke:none;stroke-width:2;stroke-linecap:butt;stroke-linejoin:miter;stroke-miterlimit:4;stroke-dasharray:none;stroke-opacity:1"
     d="m 22.601,19.000197 c -2.9459,0 -4.873047,1.93175 -4.873047,4.46875 0,2.4844 1.868666,4.472656 4.759766,4.472656 l 0.05664,0 c 3.0028,0 4.871093,-1.988256 4.871093,-4.472656 -0.0558,-2.537 -1.868353,-4.46875 -4.814452,-4.46875 z m 25.390625,11.865235 c -4.5721,0 -6.620672,2.511637 -7.763672,4.273437 l 0,-3.664062 -8.611328,0 c 0.1136,2.4279 0,25.873046 0,25.873046 l 8.611328,0 0,-14.449218 c 0,-0.7732 0.0555,-1.54601 0.283203,-2.09961 0.6224,-1.5449 2.040722,-3.144531 4.419922,-3.144531 3.1174,0 4.363282,2.372509 4.363282,5.849609 l 0,13.84375 8.611328,0 0,-14.835937 c 0,-7.9475 -4.247163,-11.646484 -9.914063,-11.646484 z m -29.753906,0.607421 0,25.875 8.611328,0 0,-25.875 z"
     id="rect4138"
     inkscape:connector-curvature="0"
     sodipodi:nodetypes="sssscsscccccscssccssccccc" />
</svg>

<?xml version="1.0" encoding="UTF-8" standalone="no"?>
<!DOCTYPE svg PUBLIC "-//W3C//DTD SVG 1.1//EN" "http://www.w3.org/Graphics/SVG/1.1/DTD/svg11.dtd">
<svg width="100%" height="100%" viewBox="0 0 76 76" version="1.1" xmlns="http://www.w3.org/2000/svg" xmlns:xlink="http://www.w3.org/1999/xlink" xml:space="preserve" xmlns:serif="http://www.serif.com/" style="fill-rule:evenodd;clip-rule:evenodd;stroke-linejoin:round;stroke-miterlimit:2;">
    <g id="rect4138" transform="matrix(1.89159,0,0,1.89159,-33.5341,-34.2098)">
        <path d="M22.601,19C19.655,19 17.728,20.932 17.728,23.469C17.728,25.953 19.597,27.942 22.488,27.942L22.544,27.942C25.547,27.942 27.415,25.953 27.415,23.469C27.36,20.932 25.547,19 22.601,19ZM47.992,30.865C43.42,30.865 41.371,33.377 40.228,35.139L40.228,31.475L31.617,31.475C31.73,33.903 31.617,57.348 31.617,57.348L40.228,57.348L40.228,42.899C40.228,42.125 40.283,41.353 40.511,40.799C41.134,39.254 42.552,37.654 44.931,37.654C48.048,37.654 49.294,40.027 49.294,43.504L49.294,57.348L57.906,57.348L57.906,42.512C57.906,34.564 53.659,30.865 47.992,30.865ZM18.238,31.473L18.238,57.348L26.849,57.348L26.849,31.473L18.238,31.473Z" style="fill-rule:nonzero;"/>
    </g>
</svg>
